X:202
T: WIE WOHL IST MIR IM DUNKELN
N: B0240
O: Europa, Mitteleuropa, Deutschland, Thueringen
R: Tageszeiten - Lied, Abend
M: 6/8
L: 1/16
K: Ab
E2 | c4A2d4B2 | e4c2A4
G2 | F4d2c4B2 | A6G4
E2 | c4A2d4B2 | e4c2A4
G2 | F4d2c4B2 | A6G4
e2 | e4e2e4G2 | B4A2A4
fe | e4e2d3fed | d4c2c4
E2 | c4A2d4B2 | e6
f6 | e3cA2G2c2B2 | B6A4

